public/assets/icons/skills/node.svg

<svg width="43" height="48" viewBox="0 0 43 48" fill="none" xmlns="http://www.w3.org/2000/svg">
<path d="M21.2595 47.9109C20.5993 47.9109 19.9831 47.7349 19.4109 47.4268L13.5568 43.9495C12.6765 43.4654 13.1166 43.2893 13.3807 43.2013C14.5692 42.8051 14.7892 42.7171 16.0217 42.0129C16.1537 41.9248 16.3298 41.9688 16.4618 42.0569L20.9514 44.7418C21.1275 44.8298 21.3475 44.8298 21.4796 44.7418L39.0418 34.5742C39.2179 34.4862 39.3059 34.3101 39.3059 34.0901V13.7989C39.3059 13.5788 39.2179 13.4027 39.0418 13.3147L21.4796 3.19113C21.3035 3.1031 21.0835 3.1031 20.9514 3.19113L3.3892 13.3147C3.21314 13.4027 3.1251 13.6228 3.1251 13.7989V34.0901C3.1251 34.2661 3.21314 34.4862 3.3892 34.5742L8.18689 37.3472C10.7838 38.6677 12.4124 37.1271 12.4124 35.5866V15.5595C12.4124 15.2954 12.6325 15.0313 12.9406 15.0313H15.1854C15.4495 15.0313 15.7136 15.2514 15.7136 15.5595V35.5866C15.7136 39.0638 13.8209 41.0885 10.5197 41.0885C9.50736 41.0885 8.71508 41.0885 6.47029 39.9881L1.84865 37.3472C0.704249 36.687 0 35.4545 0 34.1341V13.8429C0 12.5224 0.704249 11.29 1.84865 10.6298L19.4109 0.462163C20.5113 -0.154054 22.0078 -0.154054 23.1082 0.462163L40.6704 10.6298C41.8148 11.29 42.519 12.5224 42.519 13.8429V34.1341C42.519 35.4545 41.8148 36.687 40.6704 37.3472L23.1082 47.5148C22.536 47.7789 21.8757 47.9109 21.2595 47.9109ZM26.6734 33.958C18.9707 33.958 17.3861 30.4368 17.3861 27.4437C17.3861 27.1796 17.6062 26.9155 17.9143 26.9155H20.2031C20.4672 26.9155 20.6873 27.0916 20.6873 27.3557C21.0394 29.6885 22.0518 30.8329 26.7174 30.8329C30.4148 30.8329 31.9993 29.9966 31.9993 28.0159C31.9993 26.8715 31.5592 26.0352 25.7931 25.463C20.9954 24.9788 18.0024 23.9225 18.0024 20.0931C18.0024 16.5278 20.9954 14.4151 26.0132 14.4151C31.6472 14.4151 34.4202 16.3518 34.7723 20.5773C34.7723 20.7093 34.7283 20.8414 34.6402 20.9734C34.5522 21.0614 34.4202 21.1495 34.2881 21.1495H31.9993C31.7792 21.1495 31.5592 20.9734 31.5151 20.7533C30.987 18.3325 29.6225 17.5402 26.0132 17.5402C21.9638 17.5402 21.4796 18.9487 21.4796 20.0051C21.4796 21.2815 22.0518 21.6777 27.5097 22.3819C32.9236 23.0862 35.4765 24.0985 35.4765 27.8839C35.4325 31.7572 32.2634 33.958 26.6734 33.958Z" fill="#539E43"/>
<title>NodeJS</title>
</svg>

<svg width="43" height="48" fill="none" xmlns="http://www.w3.org/2000/svg"><path d="M21.26 47.91a3.86 3.86 0 01-1.85-.483l-5.853-3.477c-.88-.485-.44-.66-.176-.749 1.188-.396 1.408-.484 2.64-1.188.133-.088.309-.044.44.044l4.49 2.685c.177.088.396.088.529 0l17.562-10.168c.176-.088.264-.264.264-.484V13.8c0-.22-.088-.396-.264-.484L21.48 3.19c-.177-.088-.396-.088-.529 0L3.39 13.315c-.176.088-.264.308-.264.484V34.09c0 .176.088.396.264.484l4.798 2.773c2.597 1.32 4.225-.22 4.225-1.76V15.559c0-.264.22-.528.529-.528h2.244c.264 0 .529.22.529.528v20.028c0 3.477-1.893 5.502-5.194 5.502-1.013 0-1.805 0-4.05-1.1L1.85 37.346A3.715 3.715 0 010 34.134V13.843c0-1.32.704-2.553 1.849-3.213L19.41.462c1.1-.616 2.597-.616 3.697 0L40.67 10.63a3.715 3.715 0 011.849 3.213v20.291c0 1.32-.704 2.553-1.849 3.213L23.108 47.515a4.505 4.505 0 01-1.849.396zm5.413-13.952c-7.702 0-9.287-3.521-9.287-6.514 0-.264.22-.528.528-.528h2.29c.263 0 .483.176.483.44.352 2.332 1.365 3.477 6.03 3.477 3.698 0 5.282-.836 5.282-2.817 0-1.144-.44-1.98-6.206-2.553-4.798-.484-7.79-1.54-7.79-5.37 0-3.565 2.992-5.678 8.01-5.678 5.634 0 8.407 1.937 8.76 6.162a.71.71 0 01-.133.396c-.088.088-.22.177-.352.177H32a.516.516 0 01-.484-.397c-.528-2.42-1.893-3.213-5.502-3.213-4.05 0-4.533 1.409-4.533 2.465 0 1.277.572 1.673 6.03 2.377 5.414.704 7.966 1.716 7.966 5.502-.044 3.873-3.213 6.074-8.803 6.074z" fill="#539E43"/></svg>
